flaticon/business/safebox-3.svg

<svg xmlns="http://www.w3.org/2000/svg" width="32" height="32" viewBox="0 0 24 24">
    <path d="M 23.222656 2.433594 L 18.917969 2.433594 L 15.464844 0.492188 C 15.328125 0.414062 15.15625 0.414062 15.019531 0.496094 C 14.886719 0.574219 14.800781 0.722656 14.800781 0.878906 L 14.800781 1.234375 L 11.601562 1.234375 L 11.601562 2.433594 L 0.777344 2.433594 C 0.347656 2.433594 0 2.78125 0 3.210938 L 0 20.855469 C 0 21.285156 0.347656 21.632812 0.777344 21.632812 L 0.800781 21.632812 L 0.800781 23.234375 L 4.800781 23.234375 L 4.800781 21.632812 L 11.601562 21.632812 L 11.601562 22.832031 L 14.800781 22.832031 L 14.800781 23.121094 C 14.800781 23.277344 14.886719 23.425781 15.023438 23.503906 C 15.089844 23.546875 15.167969 23.566406 15.246094 23.566406 C 15.324219 23.566406 15.398438 23.546875 15.464844 23.507812 L 18.800781 21.632812 L 19.199219 21.632812 L 19.199219 23.234375 L 23.199219 23.234375 L 23.199219 21.632812 L 23.222656 21.632812 C 23.652344 21.632812 24 21.285156 24 20.855469 L 24 3.210938 C 24 2.78125 23.652344 2.433594 23.222656 2.433594 Z M 4 22.433594 L 1.601562 22.433594 L 1.601562 21.632812 L 4 21.632812 Z M 4.800781 20.847656 L 4.800781 20.832031 L 0.800781 20.832031 L 0.800781 20.855469 L 0.777344 3.234375 L 11.601562 3.234375 L 11.601562 4.03125 L 2.539062 4.03125 C 2.019531 4.03125 1.601562 4.453125 1.601562 4.972656 L 1.601562 19.09375 C 1.601562 19.363281 1.714844 19.605469 1.898438 19.777344 L 1.785156 20.03125 L 11.601562 20.03125 L 11.601562 20.832031 Z M 11.601562 8.433594 L 8.539062 8.433594 L 6.941406 12.03125 L 6.140625 12.03125 L 4.539062 15.632812 L 3.742188 15.632812 L 2.398438 18.648438 L 2.398438 4.972656 C 2.398438 4.894531 2.460938 4.832031 2.539062 4.832031 L 11.601562 4.832031 Z M 4.257812 16.433594 L 6.941406 16.433594 L 8.160156 19.183594 L 8.140625 19.234375 L 3.015625 19.234375 Z M 6.660156 12.832031 L 9.339844 12.832031 L 10.585938 15.632812 L 5.414062 15.632812 Z M 9.386719 16.433594 L 8.601562 18.199219 L 7.816406 16.433594 Z M 9.039062 19.183594 L 10.261719 16.433594 L 11.601562 16.433594 L 11.601562 19.234375 L 9.058594 19.234375 Z M 11.460938 15.632812 L 10.214844 12.832031 L 11.601562 12.832031 L 11.601562 15.632812 Z M 11.601562 12.03125 L 7.816406 12.03125 L 9.058594 9.234375 L 11.601562 9.234375 Z M 12.398438 22.03125 L 12.398438 2.03125 L 14.800781 2.03125 L 14.800781 22.03125 Z M 15.601562 1.484375 L 17.289062 2.433594 L 17.230469 2.433594 L 21.199219 4.667969 L 21.199219 6.03125 C 20.980469 6.03125 20.800781 6.210938 20.800781 6.433594 C 20.800781 6.65625 20.980469 6.832031 21.199219 6.832031 L 21.199219 7.234375 C 20.980469 7.234375 20.800781 7.410156 20.800781 7.632812 C 20.800781 7.855469 20.980469 8.03125 21.199219 8.03125 L 21.199219 16.03125 C 20.980469 16.03125 20.800781 16.210938 20.800781 16.433594 C 20.800781 16.65625 20.980469 16.832031 21.199219 16.832031 L 21.199219 17.234375 C 20.980469 17.234375 20.800781 17.410156 20.800781 17.632812 C 20.800781 17.855469 20.980469 18.03125 21.199219 18.03125 L 21.199219 19.367188 L 15.601562 22.515625 Z M 22.398438 22.433594 L 20 22.433594 L 20 21.632812 L 22.398438 21.632812 Z M 23.199219 20.832031 L 20.28125 20.832031 L 22 19.867188 L 22 18.03125 L 22.398438 18.03125 C 22.621094 18.03125 22.800781 17.855469 22.800781 17.632812 C 22.800781 17.410156 22.621094 17.234375 22.398438 17.234375 L 22 17.234375 L 22 16.832031 L 22.398438 16.832031 C 22.621094 16.832031 22.800781 16.65625 22.800781 16.433594 C 22.800781 16.210938 22.621094 16.03125 22.398438 16.03125 L 22 16.03125 L 22 8.03125 L 22.398438 8.03125 C 22.621094 8.03125 22.800781 7.855469 22.800781 7.632812 C 22.800781 7.410156 22.621094 7.234375 22.398438 7.234375 L 22 7.234375 L 22 6.832031 L 22.398438 6.832031 C 22.621094 6.832031 22.800781 6.65625 22.800781 6.433594 C 22.800781 6.210938 22.621094 6.03125 22.398438 6.03125 L 22 6.03125 L 22 4.164062 L 20.328125 3.226562 L 23.199219 3.210938 L 23.222656 20.832031 Z M 23.199219 20.832031"/>
    <path d="M14 2.800781C14 3.019531 13.820312 3.199219 13.601562 3.199219 13.378906 3.199219 13.199219 3.019531 13.199219 2.800781 13.199219 2.578125 13.378906 2.398438 13.601562 2.398438 13.820312 2.398438 14 2.578125 14 2.800781zM14 5.199219C14 5.421875 13.820312 5.597656 13.601562 5.597656 13.378906 5.597656 13.199219 5.421875 13.199219 5.199219 13.199219 4.980469 13.378906 4.800781 13.601562 4.800781 13.820312 4.800781 14 4.980469 14 5.199219zM14 18.800781C14 19.019531 13.820312 19.199219 13.601562 19.199219 13.378906 19.199219 13.199219 19.019531 13.199219 18.800781 13.199219 18.578125 13.378906 18.398438 13.601562 18.398438 13.820312 18.398438 14 18.578125 14 18.800781zM14 16.398438C14 16.621094 13.820312 16.800781 13.601562 16.800781 13.378906 16.800781 13.199219 16.621094 13.199219 16.398438 13.199219 16.179688 13.378906 16 13.601562 16 13.820312 16 14 16.179688 14 16.398438zM14 7.597656C14 7.820312 13.820312 8 13.601562 8 13.378906 8 13.199219 7.820312 13.199219 7.597656 13.199219 7.378906 13.378906 7.199219 13.601562 7.199219 13.820312 7.199219 14 7.378906 14 7.597656zM14 21.199219C14 21.421875 13.820312 21.597656 13.601562 21.597656 13.378906 21.597656 13.199219 21.421875 13.199219 21.199219 13.199219 20.980469 13.378906 20.800781 13.601562 20.800781 13.820312 20.800781 14 20.980469 14 21.199219zM16.398438 14C16.179688 14 16 14.179688 16 14.398438 16 14.621094 16.179688 14.800781 16.398438 14.800781 17.285156 14.800781 18.003906 14.082031 18.003906 13.195312L18.003906 10.804688C18.003906 9.917969 17.285156 9.199219 16.398438 9.199219 16.179688 9.199219 16 9.378906 16 9.601562 16 9.820312 16.179688 10 16.398438 10 16.84375 10 17.203125 10.359375 17.203125 10.804688L17.203125 13.195312C17.203125 13.640625 16.84375 14 16.398438 14zM16.398438 14"/>
    <path d="M 16.398438 7.601562 C 16.179688 7.601562 16 7.777344 16 8 C 16 8.222656 16.179688 8.398438 16.398438 8.398438 C 17.726562 8.398438 18.804688 9.476562 18.804688 10.804688 L 18.804688 13.195312 C 18.804688 14.519531 17.726562 15.601562 16.398438 15.601562 C 16.179688 15.601562 16 15.777344 16 16 C 16 16.222656 16.179688 16.398438 16.398438 16.398438 C 18.167969 16.398438 19.605469 14.960938 19.605469 13.195312 L 19.605469 10.804688 C 19.605469 9.039062 18.167969 7.601562 16.398438 7.601562 Z M 16.398438 7.601562"/>
</svg>

<svg xmlns="http://www.w3.org/2000/svg" width="32" height="32" viewBox="0 0 24 24">
    <path d="M23.223 2.434h-4.305L15.465.492A.443.443 0 0 0 14.8.88v.355h-3.2v1.2H.778A.777.777 0 0 0 0 3.21v17.644c0 .43.348.778.777.778h.024v1.601h4v-1.601h6.8v1.199h3.2v.29c0 .155.086.304.222.382a.427.427 0 0 0 .441.004l3.337-1.875h.398v1.601h4v-1.601h.024c.43 0 .777-.348.777-.778V3.211a.777.777 0 0 0-.777-.777zM4 22.434H1.602v-.801H4zm.8-1.586v-.016h-4v.023L.778 3.235h10.825v.796H2.539a.939.939 0 0 0-.937.942v14.12c0 .27.113.512.296.684l-.113.254h9.817v.801zm6.802-12.414H8.539L6.941 12.03h-.8l-1.602 3.602h-.797l-1.344 3.015V4.973a.14.14 0 0 1 .141-.141h9.063zm-7.344 8H6.94l1.22 2.75-.02.05H3.016zm2.402-3.602h2.68l1.246 2.8H5.414zm2.727 3.602l-.785 1.765-.786-1.765zm-.348 2.75l1.223-2.75h1.34v2.8H9.059zm2.422-3.551l-1.246-2.801h1.387v2.8zm.14-3.602H7.817L9.06 9.234h2.543zm.797 10v-20h2.403v20zm3.204-20.547l1.687.95h-.059l3.97 2.234v1.363a.401.401 0 0 0 0 .801v.402a.398.398 0 1 0 0 .797v8a.401.401 0 0 0 0 .801v.402a.398.398 0 1 0 0 .797v1.336l-5.598 3.149zm6.796 20.95H20v-.801h2.398zm.801-1.602h-2.918L22 19.867v-1.836h.398a.398.398 0 1 0 0-.797H22v-.402h.398a.398.398 0 0 0 .403-.398.402.402 0 0 0-.403-.403H22v-8h.398a.398.398 0 1 0 0-.797H22v-.402h.398a.398.398 0 0 0 .403-.398.402.402 0 0 0-.403-.403H22V4.164l-1.672-.937L23.2 3.21l.024 17.621zm0 0"/>
    <path d="M14 2.8a.4.4 0 1 1-.8-.003.4.4 0 0 1 .8.004zm0 0M14 5.2c0 .222-.18.398-.398.398a.398.398 0 1 1 0-.797.4.4 0 0 1 .398.398zm0 0M14 18.8a.4.4 0 1 1-.8-.003.4.4 0 0 1 .8.004zm0 0M14 16.398a.401.401 0 1 1-.802.003.401.401 0 0 1 .802-.003zm0 0M14 7.598a.401.401 0 1 1-.802.002.401.401 0 0 1 .802-.002zm0 0M14 21.2c0 .222-.18.398-.398.398a.398.398 0 1 1 0-.797.4.4 0 0 1 .398.398zm0 0M16.398 14a.4.4 0 0 0 0 .8c.887 0 1.606-.718 1.606-1.605v-2.39c0-.887-.719-1.606-1.606-1.606a.401.401 0 0 0 0 .801c.446 0 .805.36.805.805v2.39c0 .446-.36.805-.805.805zm0 0"/>
    <path d="M16.398 7.602a.398.398 0 1 0 0 .796 2.407 2.407 0 0 1 2.407 2.407v2.39a2.41 2.41 0 0 1-2.407 2.407.398.398 0 1 0 0 .796 3.208 3.208 0 0 0 3.207-3.203v-2.39a3.208 3.208 0 0 0-3.207-3.203zm0 0"/>
</svg>
